dist/svgs/carbon-icons/svg/locked.svg

<?xml version="1.0" encoding="UTF-8"?>
<svg width="16px" height="16px" viewBox="0 0 16 16" version="1.1" xmlns="http://www.w3.org/2000/svg" xmlns:xlink="http://www.w3.org/1999/xlink">
    <!-- Generator: Sketch 50.2 (55047) - http://www.bohemiancoding.com/sketch -->
    <title>locked</title>
    <desc>Created with Sketch.</desc>
    <defs></defs>
    <g id="locked" stroke="none" stroke-width="1" fill="none" fill-rule="evenodd">
        <path d="M4.5,7 L4.5,3.5 C4.5,1.56700338 6.06700338,3.88578059e-16 8,0 C9.93299662,-3.23815049e-16 11.5,1.56700338 11.5,3.5 L11.5,7 L12.5,7 C13.3284271,7 14,7.67157288 14,8.5 L14,14.5 C14,15.3284271 13.3284271,16 12.5,16 L3.5,16 C2.67157288,16 2,15.3284271 2,14.5 L2,8.5 C2,7.67157288 2.67157288,7 3.5,7 L4.5,7 Z M5.5,7 L10.5,7 L10.5,3.5 C10.5,2.11928813 9.38071187,1 8,1 C6.61928813,1 5.5,2.11928813 5.5,3.5 L5.5,7 Z M3.5,8 C3.22385763,8 3,8.22385763 3,8.5 L3,14.5 C3,14.7761424 3.22385763,15 3.5,15 L12.5,15 C12.7761424,15 13,14.7761424 13,14.5 L13,8.5 C13,8.22385763 12.7761424,8 12.5,8 L3.5,8 Z" id="Combined-Shape" fill="#000000" fill-rule="nonzero"></path>
    </g>
</svg>

<svg xmlns="http://www.w3.org/2000/svg" viewBox="0 0 16 16"><path d="M4.5 7V3.5a3.5 3.5 0 017 0V7h1A1.5 1.5 0 0114 8.5v6a1.5 1.5 0 01-1.5 1.5h-9A1.5 1.5 0 012 14.5v-6A1.5 1.5 0 013.5 7h1zm1 0h5V3.5a2.5 2.5 0 00-5 0V7zm-2 1a.5.5 0 00-.5.5v6a.5.5 0 00.5.5h9a.5.5 0 00.5-.5v-6a.5.5 0 00-.5-.5h-9z"/></svg>
